X: 1
T: Norland Wind
T: I saw the wild geese flee
C: melody: Jim Reid
C: words: Violet Jacob 1915
R: AIR
M: 4/4
L: 1/4
Q: 1/4=98
K: A
E | "A"AB  c>B | "F#m"d<c A>C | "D"D>C    D<E  | "E"E2  z |\
E | "A"AB  c>B | "F#m"d<c A>C | "D"D>C    D<E  | "E"B2  z |]
E | "F#m"AB cB |   "A"d<c A>C | "D"D>C    DE   |"Bm"B,2 z |\
C | "D"D>C  DE | "Bm"D<C A,>C | "D"D>C "E"A,<A,| "A"A,2 z |]
